X: 4184
T: OULD MIKE
%R: reel
B: James Kerr "Merry Melodies" v.4 p.21 #184
Z: 2016 John Chambers <jc:trillian.mit.edu>
M: C|
L: 1/8
K: Am
|:\
ABcd e^dea | fagf e=dcB | ABcd e^dea |[1 e=dcB A2E2 |[2 e=dcB A2B2 |:\
cdef gece | dBGB dBGB | cdef gece |[1 dBGB c2G2 :|[2 eaa^g a2e2 |]

%%sep 1 1 500
%%sep 1 1 500

